!!!COM: Palestrina, Giovanni Perluigi da
!!!OPR: De Beata Marie Virginis (II)
!!!OTL: Gloria
**kern	**kern	**kern	**kern	**kern
*Ibass	*Itenor	*Itenor	*Icalto	*Icant
!Bassus	!Tenor 2	!Tenor 1	!Altus	!Cantus
*clefF4	*clefGv2	*clefGv2	*clefG2	*clefG2
*k[]	*k[]	*k[]	*k[]	*k[]
*G:mix	*G:mix	*G:mix	*G:mix	*G:mix
*M4/2	*M4/2	*M4/2	*M4/2	*M4/2
=1	=1	=1	=1	=1
0r	1r	0r	1c	1cc
.	2r	.	2d	2a
.	2c	.	2e	2g
=2	=2	=2	=2	=2
0r	2A	0r	2f#	2a
.	2G	.	2.g	2.b
.	2G	.	.	.
.	.	.	4f	4a
.	[2g	.	2e	4b
.	.	.	.	4g
=3	=3	=3	=3	=3
1r	4g]	1r	1d	1a
.	8f#	.	.	.
.	8e	.	.	.
.	2f#	.	.	.
1C	2g	1c	2e	1g
.	2e	.	2g	.
=4	=4	=4	=4	=4
2D	2d	2A	2f	2r
2E	2c	2G	2e	2cc
2F#	1d	2A	4d	2a
.	.	.	4c	.
[2G	.	[2B	4B	[2g
.	.	.	4A	.
=5	=5	=5	=5	=5
4G]	2.B	4B]	2G	2g]
4F	.	4A	.	.
2E	.	4B	1g	2g
.	4c	4G	.	.
1D	1d	1A	.	1dd
.	.	.	2f#	.
=6	=6	=6	=6	=6
[0G	[0d	[0G	[0g	[0b
=7	=7	=7	=7	=7
0G]	0d]	0G]	0g]	0b]
!! Benedicimus te
*Ibass	*Itenor	*Itenor	*Icalto	*Icant
!Bassus	!Tenor 2	!Tenor 1	!Altus	!Cantus
*clefF4	*clefGv2	*clefGv2	*clefG2	*clefG2
*k[]	*k[]	*k[]	*k[]	*k[]
*G:mix	*G:mix	*G:mix	*G:mix	*G:mix
*M4/2	*M4/2	*M4/2	*M4/2	*M4/2
=8	=8	=8	=8	=8
0r	0r	0r	1.g	1r
.	.	.	.	1dd
.	.	.	2f	.
=9	=9	=9	=9	=9
0r	0r	0r	2e	2cc
.	.	.	2d	2b
.	.	.	1f	2a
.	.	.	.	[2cc
=10	=10	=10	=10	=10
1r	2r	0r	1g	4cc]
.	.	.	.	4b
.	1g	.	.	4b
.	.	.	.	8a
.	.	.	.	8g
2r	.	.	1d	1a
[2d	2f	.	.	.
=11	=11	=11	=11	=11
2d]	1e	2r	2r	2.g
2c	.	1g	2e	.
.	.	.	.	4a
2B	2d	.	2g	2b
2A	4c	2f	2a	[2cc
.	4d	.	.	.
=12	=12	=12	=12	=12
1c	4e	1e	2g	4cc]
.	4f	.	.	4dd
.	2g	.	2cc	2ee
2.d	2.f	4d	2b	2ff
.	.	4e	.	.
.	.	4f	[2a	[2dd
8c	8e	4g	.	.
8B	8d	.	.	.
=13	=13	=13	=13	=13
0A	0e	2a	4a]	2dd]
.	.	.	8g	.
.	.	.	8f	.
.	.	2.a	2e	4cc#
.	.	.	.	4b
.	.	.	1a	1cc#
.	.	4g	.	.
.	.	2e	.	.
=14	=14	=14	=14	=14
[0D	[0d	[0f#	[0a	[0dd
=15	=15	=15	=15	=15
0D]	0d]	0f#]	0a]	0dd]
!! Glorificamus te
*Ibass	*Itenor	*Itenor	*Icalto	*Icant
!Bassus	!Tenor 2	!Tenor 1	!Altus	!Cantus
*clefF4	*clefGv2	*clefGv2	*clefG2	*clefG2
*k[]	*k[]	*k[]	*k[]	*k[]
*G:mix	*G:mix	*G:mix	*G:mix	*G:mix
*M4/2	*M4/2	*M4/2	*M4/2	*M4/2
=16	=16	=16	=16	=16
0r	0r	0r	0r	1dd
.	.	.	.	[1ee
=17	=17	=17	=17	=17
0r	0r	0r	1g	2ee]
.	.	.	.	2dd
.	.	.	[1a	2cc
.	.	.	.	4b
.	.	.	.	4a
=18	=18	=18	=18	=18
0r	0r	0r	2a]	2cc
.	.	.	2g	1dd
.	.	.	2f	.
.	.	.	4e	4cc
.	.	.	4d	4b
=19	=19	=19	=19	=19
0r	1r	0r	2f	2a
.	.	.	1g	2g
.	1d	.	.	1a
.	.	.	2f#	.
=20	=20	=20	=20	=20
1r	1.e	0r	2g	1g
.	.	.	1c	.
1G	.	.	.	1gg
.	2d	.	2B	.
=21	=21	=21	=21	=21
1.A	2c	1r	2c	2.ee
.	4B	.	2e	.
.	4A	.	.	4dd
.	2c	2r	2f	2cc
2G	[2d	2g	2g	2b
=22	=22	=22	=22	=22
2F	2d]	1.a	1r	2a
4E	4c	.	.	2cc
4D	4B	.	.	.
2F	2A	.	1d	2.dd
2G	2B	2g	.	.
.	.	.	.	4ee
=23	=23	=23	=23	=23
2D	0d	2f	1.a	4ff
.	.	.	.	4dd
2d	.	4e	.	2.ff
.	.	4d	.	.
2d	.	2f	.	.
.	.	.	.	4ee
2G	.	2g	2b-	[2dd
=24	=24	=24	=24	=24
1A	2r	0e	1a	2dd]
.	2.a	.	.	4cc#
.	.	.	.	4b
1A	.	.	1a	1cc#
.	4g	.	.	.
.	2e	.	.	.
=25	=25	=25	=25	=25
[0D	[0f#	[0d	[0a	[0dd
=26	=26	=26	=26	=26
0D]	0f#]	0d]	0a]	0dd]
!! Domine Deus Rex
*Ibass	*Itenor	*Itenor	*Icalto	*Icant
!Bassus	!Tenor 2	!Tenor 1	!Altus	!Cantus
*clefF4	*clefGv2	*clefGv2	*clefG2	*clefG2
*k[]	*k[]	*k[]	*k[]	*k[]
*G:mix	*G:mix	*G:mix	*G:mix	*G:mix
*M4/2	*M4/2	*M4/2	*M4/2	*M4/2
=27	=27	=27	=27	=27
0r	0r	1d	1r	0r
.	.	2c	1g	.
.	.	2B	.	.
=28	=28	=28	=28	=28
0r	0r	2A	2f	1r
.	.	4G	2e	.
.	.	4A	.	.
.	.	4B	4d	1dd
.	.	4c	4e	.
.	.	4d	4f	.
.	.	4e	4g	.
=29	=29	=29	=29	=29
0r	0r	2f	2a	2cc
.	.	2g	1g	2b
.	.	1d	.	1a
.	.	.	2f	.
=30	=30	=30	=30	=30
0r	1g	2r	1e	4g
.	.	.	.	4a
.	.	2e	.	4b
.	.	.	.	4cc
.	2f	2d	1a	2dd
.	2e	2c	.	2ee
=31	=31	=31	=31	=31
1r	4d	1d	1.a	4ff
.	4e	.	.	4ee
.	4f	.	.	1dd
.	4d	.	.	.
1A	1e	1a	.	.
.	.	.	2e	2cc#
=32	=32	=32	=32	=32
1d	2d	2r	4f	1dd
.	.	.	4g	.
.	2f	2d	4a	.
.	.	.	4b	.
2c	2e	1g	2cc	1r
2B	[2d	.	2g	.
=33	=33	=33	=33	=33
2.A	2d]	2f	0a	0r
.	2c	2e	.	.
4G	.	.	.	.
4F	2.A	4d	.	.
4E	.	4c	.	.
2D	.	[2f	.	.
.	4G	.	.	.
=34	=34	=34	=34	=34
2F	2A	4f]	2r	0r
.	.	4e	.	.
2G	2B	1d	2d	.
1E	2r	.	2e	.
.	2G	2c#	[2g	.
=35	=35	=35	=35	=35
1D	1A	2d	2g]	1r
.	.	2d	2f	.
1r	2c	2e	2e	1g
.	2B	[2g	2d	.
=36	=36	=36	=36	=36
0r	1A	2g]	2.c	2a
.	.	2f	.	1cc
.	.	.	4d	.
.	1G	2e	4e	.
.	.	.	4f#	.
.	.	2d	[2g	2b
=37	=37	=37	=37	=37
1r	2c	0r	2g]	1a
.	2d	.	2f#	.
1C	4e	.	2g	1g
.	4d	.	.	.
.	4c	.	2e	.
.	4B	.	.	.
=38	=38	=38	=38	=38
2D	2.A	1r	2f	2r
1F	.	.	1a	2cc
.	4G	.	.	.
.	4A	2r	.	2dd
.	4B	.	.	.
2E	2c	2G	2g	2ee
=39	=39	=39	=39	=39
1D	1F	1A	2f	1ff
.	.	.	2d	.
1C	1G	[1c	4e	1ee
.	.	.	4f	.
.	.	.	4g	.
.	.	.	4e	.
=40	=40	=40	=40	=40
2F	2A	2c]	2f	1dd
2G	2B	2B	2d	.
[1C	[1c	2A	1e	2cc
.	.	2G	.	[2ee
=41	=41	=41	=41	=41
2C]	2c]	2c	1.g	2ee]
2G	2B	2d	.	2dd
1C	4c	4e	.	4cc
.	4d	4d	.	4b
.	2e	4c	[2a	4a
.	.	4B	.	4g
=42	=42	=42	=42	=42
0D	1.d	2A	2a]	2f#
.	.	2B	1g	2g
.	.	1A	.	1a
.	2d	.	2f#	.
=43	=43	=43	=43	=43
[0G	[0d	[0G	[0g	[0b
=44	=44	=44	=44	=44
0G]	0d]	0G]	0g]	0b]
*	*	*	*	*-
!! Domine Deus Agnus
*Itenor	*Itenor	*Icalto	*Icant
!Tenor 2	!Tenor 1	!Altus	!Cantus
*clefGv2	*clefGv2	*clefG2	*clefG2
*k[]	*k[]	*k[]	*k[]
*G:mix	*G:mix	*G:mix	*G:mix
*M4/2	*M4/2	*M4/2	*M4/2
=45	=45	=45	=45
0r	0r	2r	1g
.	.	2.c	.
.	.	.	1cc
.	.	4d	.
.	.	4e	.
.	.	4f	.
=46	=46	=46	=46
0r	0r	2g	2b
.	.	2a	2cc
.	.	2f	1dd
.	.	2g	.
=47	=47	=47	=47
1r	0r	2c	1ee
.	.	1cc	.
2r	.	.	1dd
[2G	.	4b	.
.	.	4a	.
=48	=48	=48	=48
4G]	0r	4b	2.dd
4A	.	4a	.
4B	.	2g	.
4c	.	.	8cc
.	.	.	8b
2d	.	2f#	2a
2e	.	[2g	2g
=49	=49	=49	=49
2c	1r	2g]	1a
2d	.	2f#	.
2G	2r	1g	1b
[2g	[2e	.	.
=50	=50	=50	=50
2g]	2e]	2r	0r
2f	2d	1a	.
2e	2c	.	.
2d	2B	2g	.
=51	=51	=51	=51
2.c	1A	2f	2r
.	.	4e	1ee
4d	.	4f	.
4e	1G	4g	.
4f	.	4a	.
2g	.	4b	2dd
.	.	4g	.
=52	=52	=52	=52
1e	1c	2a	2cc
.	.	1g	2b
1r	1d	.	1a
.	.	2f#	.
=53	=53	=53	=53
2r	2e	2g	2g
1a	1f	4f	2cc
.	.	4g	.
.	.	4a	2dd
.	.	4b	.
2g	2c	2cc	[2ee
=54	=54	=54	=54
1f	1d	0a	2ee]
.	.	.	1dd
1e	1A	.	.
.	.	.	2cc#
=55	=55	=55	=55
[0f#	[0d	[0a	[0dd
=56	=56	=56	=56
0f#]	0d]	0a]	0dd]
*-	*-	*-	*-
!! Qui tollis
**kern	**kern	**kern	**kern	**kern
*Ibass	*Itenor	*Itenor	*Icalto	*Icant
!Bassus	!Tenor 2	!Tenor 1	!Altus	!Cantus
*clefF4	*clefGv2	*clefGv2	*clefG2	*clefG2
*k[]	*k[]	*k[]	*k[]	*k[]
*G:mix	*G:mix	*G:mix	*G:mix	*G:mix
*M4/2	*M4/2	*M4/2	*M4/2	*M4/2
=57	=57	=57	=57	=57
0r	1r	0r	1r	1g
.	1G	.	[1g	2.b
.	.	.	.	4cc
=58	=58	=58	=58	=58
0r	2B	0r	1g]	2dd
.	2c	.	.	2.ee
.	2.d	.	2.f#	.
.	.	.	.	4dd
.	.	.	.	[2dd
.	4G	.	4g	.
=59	=59	=59	=59	=59
1r	1A	1r	1e	2dd]
.	.	.	.	2cc#
1G	2.B	2r	1d	[1dd
.	.	2G	.	.
.	4c	.	.	.
=60	=60	=60	=60	=60
1G	1d	2.B	2r	1dd]
.	.	.	2d	.
.	.	4c	.	.
2F	1r	2d	2f	1r
2E	.	[2e	2g	.
=61	=61	=61	=61	=61
2F	2r	4e]	2a	2r
.	.	4d	.	.
2G	2g	1d	1b	2g
1E	1g	.	.	2b
.	.	2c	4a	2cc
.	.	.	4g	.
=62	=62	=62	=62	=62
1D	2.f	2r	2.a	4dd
.	.	.	.	4ee
.	.	1d	.	2.ff
.	4e	.	4g	.
1r	2f	.	2a	.
.	.	.	.	4ee
.	2g	2G	2b-	[2dd
=63	=63	=63	=63	=63
1r	1e	1A	1a	2dd]
.	.	.	.	2cc#
2r	2d	2.a	2.f#	1dd
[2d	4d	.	.	.
.	4e	4g	4g	.
=64	=64	=64	=64	=64
2d]	4f	2f	1a	0r
.	4g	.	.	.
2c	2.a	2e	.	.
2B	.	2d	1r	.
.	4g	.	.	.
2c	[2g	[2e	.	.
=65	=65	=65	=65	=65
1A	2g]	2e]	1r	1r
.	2f#	4d	.	.
.	.	4c	.	.
1G	2g	1B	2.d	[1dd
.	[2d	.	.	.
.	.	.	4e	.
=66	=66	=66	=66	=66
0r	4d]	0r	4f	2dd]
.	4e	.	4g	.
.	2f	.	2.a	2cc
.	2g	.	.	2b
.	.	.	4g	.
.	2c	.	[2g	2cc
=67	=67	=67	=67	=67
1r	1d	2r	2g]	1a
.	.	2d	2f#	.
2r	1r	2e	1g	1g
2G	.	4g	.	.
.	.	4f	.	.
=68	=68	=68	=68	=68
2A	0r	4e	1r	1cc
.	.	4d	.	.
1c	.	2e	.	.
.	.	1d	1g	1dd
2B	.	.	.	.
=69	=69	=69	=69	=69
1A	2r	2a	2c	2ee
.	2c	2A	1cc	2ff
2.G	1d	2r	.	[1gg
.	.	[2B	2b	.
4F	.	.	.	.
=70	=70	=70	=70	=70
2E	2e	4B]	2g	2gg]
.	.	4G	.	.
2D	2f	2d	4a	2ff
.	.	.	4b	.
2C	2.g	1G	2cc	2ee
2G	.	.	2b-	2dd
.	4f	.	.	.
=71	=71	=71	=71	=71
2A	2e	2r	2a	2cc#
2B	2d	2B	2g#	1dd
1A	1e	2c#	1a	.
.	.	2A	.	2cc#
=72	=72	=72	=72	=72
[0D	[0d	[0A	[0f#	[0dd
=73	=73	=73	=73	=73
0D]	0d]	0A]	0f#]	0dd]
!! Quoniam
*Ibass	*Itenor	*Itenor	*Icalto	*Icant
!Bassus	!Tenor 2	!Tenor 1	!Altus	!Cantus
*clefF4	*clefGv2	*clefGv2	*clefG2	*clefG2
*k[]	*k[]	*k[]	*k[]	*k[]
*G:mix	*G:mix	*G:mix	*G:mix	*G:mix
*M4/2	*M4/2	*M4/2	*M4/2	*M4/2
=74	=74	=74	=74	=74
0r	0r	1r	1.g	0r
.	.	[1d	.	.
.	.	.	2f	.
=75	=75	=75	=75	=75
0r	1r	2d]	1e	0r
.	.	2c	.	.
.	[1g	2B	2d	.
.	.	2c	2e	.
=76	=76	=76	=76	=76
0r	2g]	1A	2c	1r
.	2f	.	2.cc	.
.	2e	1G	.	2r
.	.	.	4b	.
.	2d	.	[2b	[2dd
=77	=77	=77	=77	=77
0r	2f	1A	4b]	2dd]
.	.	.	4a	.
.	1e	.	2.a	2cc
.	.	1e	.	2b
.	.	.	4g	.
.	2c	.	[2g	2cc
=78	=78	=78	=78	=78
2r	1d	0r	2g]	1a
1d	.	.	2f#	.
.	2B	.	2g	[1g
2c	2c	.	2e	.
=79	=79	=79	=79	=79
2B	2G	2r	2d	1g]
2c	2c	1g	2e	.
1A	2e	.	2c	2.cc
.	2f	2f	[2cc	.
.	.	.	.	4dd
=80	=80	=80	=80	=80
1G	0g	2e	2cc]	4ee
.	.	.	.	4ff
.	.	2d	2b	2.gg
1c	.	1e	2.cc	.
.	.	.	.	4ff
.	.	.	.	[2ee
.	.	.	4b	.
=81	=81	=81	=81	=81
1d	2.f	2f	0a	4ee]
.	.	.	.	4dd
.	.	2.a	.	1dd
.	8e	.	.	.
.	8d	.	.	.
1A	1e	.	.	.
.	.	4g	.	.
.	.	2e	.	2cc#
=82	=82	=82	=82	=82
[0D	[0d	[0f#	[0a	[0dd
=83	=83	=83	=83	=83
0D]	0d]	0f#]	0a]	0dd]
!! Tu solus Altissimus
*Ibass	*Itenor	*Itenor	*Icalto	*Icant
!Bassus	!Tenor 2	!Tenor 1	!Altus	!Cantus
*clefF4	*clefGv2	*clefGv2	*clefG2	*clefG2
*k[]	*k[]	*k[]	*k[]	*k[]
*G:mix	*G:mix	*G:mix	*G:mix	*G:mix
*M4/2	*M4/2	*M4/2	*M4/2	*M4/2
=84	=84	=84	=84	=84
0r	0r	1g	0r	0r
.	.	1f#	.	.
=85	=85	=85	=85	=85
1c	0r	1.g	0r	0r
1B	.	.	.	.
.	.	2d	.	.
=86	=86	=86	=86	=86
2c	0r	1e	0r	0r
2G	.	.	.	.
2A	.	2f	.	.
2B	.	[2g	.	.
=87	=87	=87	=87	=87
2.c	1g	4g]	1r	0r
.	.	4f	.	.
.	.	4e	.	.
4B	.	4d	.	.
4A	1f#	1c	1cc	.
4G	.	.	.	.
2A	.	.	.	.
=88	=88	=88	=88	=88
1G	2g	2d	1b	0r
.	2d	2.g	.	.
1C	1e	.	2cc	.
.	.	4f	.	.
.	.	2e	2g	.
=89	=89	=89	=89	=89
0r	2f	2d	2a	1r
.	4g	2G	2b	.
.	4f	.	.	.
.	4e	1c	2.cc	1gg
.	4d	.	.	.
.	2c	.	.	.
.	.	.	4b	.
=90	=90	=90	=90	=90
0r	1d	2r	4a	1ff#
.	.	.	4g	.
.	.	2d	2a	.
.	1r	2e	2g	2gg
.	.	2f	2a	2dd
=91	=91	=91	=91	=91
1r	2r	4g	2b	2ee
.	.	4e	.	.
.	2d	2a	2dd	2ff
[1C	2.e	4g	2cc	2.gg
.	.	4f	.	.
.	.	4e	4c	.
.	4f	4d	4d	4ff
=92	=92	=92	=92	=92
1C]	2g	1c	4e	4ee
.	.	.	4f	4dd
.	2e	.	4g	2ee
.	.	.	4e	.
[1F	[1f	1A	[1a	1cc
=93	=93	=93	=93	=93
2F]	1f]	1c	2a]	0ff
2E	.	.	2g	.
1D	[1a	1d	2.f	.
.	.	.	4g	.
=94	=94	=94	=94	=94
1C#	2a]	1e	[0a	1ee
.	2g	.	.	.
1D	2f	2.f	.	[1dd
.	2d	.	.	.
.	.	4g	.	.
=95	=95	=95	=95	=95
0A	0e	1a	0a]	2dd]
.	.	.	.	4cc#
.	.	.	.	4b
.	.	1A	.	1cc#
=96	=96	=96	=96	=96
[0D	[0d	[0A	[0f#	[0dd
=97	=97	=97	=97	=97
0D]	0d]	0A]	0f#]	0dd]
!! Amen
*Ibass	*Itenor	*Itenor	*Icalto	*Icant
!Bassus	!Tenor 2	!Tenor 1	!Altus	!Cantus
*clefF4	*clefGv2	*clefGv2	*clefG2	*clefG2
*k[]	*k[]	*k[]	*k[]	*k[]
*G:mix	*G:mix	*G:mix	*G:mix	*G:mix
*M4/2	*M4/2	*M4/2	*M4/2	*M4/2
=98	=98	=98	=98	=98
0r	0r	0r	1d	1dd
.	.	.	2.e	2b
.	.	.	.	2cc
.	.	.	4f#	.
=99	=99	=99	=99	=99
0r	0r	1r	2g	2b
.	.	.	4f	4a
.	.	.	4e	4g
.	.	2r	4f	4a
.	.	.	4g	4b
.	.	2A	[2a	2cc
=100	=100	=100	=100	=100
0r	0r	2.B	4a]	1b
.	.	.	4g	.
.	.	.	2g	.
.	.	4c	.	.
.	.	2d	2f	[1a
.	.	4c#	4e	.
.	.	4B	4d	.
=101	=101	=101	=101	=101
2r	2r	2c#	2e	1a]
2D	2d	2d	2f#	.
2.E	2B	2G	2g	2.g
.	2c	[2g	2e	.
4F#	.	.	.	4a
=102	=102	=102	=102	=102
2G	2B	4g]	2d	2b
.	.	4d	.	.
4F	4A	2.f	2.a	1cc
4E	4G	.	.	.
4F	4A	.	.	.
4G	4B	4e	4g	.
2A	2c	2c	4e	2a
.	.	.	4f#	.
=103	=103	=103	=103	=103
1G	1B	0d	4g	2.b
.	.	.	4a	.
.	.	.	1g	.
.	.	.	.	4cc#
1D	1A	.	.	1dd
.	.	.	2f#	.
=104	=104	=104	=104	=104
[0G	[0G	[0d	[0g	[0b
=105	=105	=105	=105	=105
0G]	0G]	0d]	0g]	0b]
==	==	==	==	==
*-	*-	*-	*-	*-
!!!CDT: 1525/^1526/-1594/2/2
!!!OCY: Italia
!!!AGN: Mass (Paraphrase)
!!!AST: renaissance, vocal
!!!ASW: Gregorian Mass
!!!PWK: Masses, Book Mantuan I
!!!RNB: Cadence finals: D
!!!YOR: Le Opere Complete, v. 18, p. 126
!!!YOO: Rome, Italy: Fratelli Scalera
!!!END: 1992//
!!!EED: John Miller
!!!YEC: Copyright 2000, John Miller
!!!YEN: United States of America
!!!YEM: Rights to all derivative electronic formats reserved.
!!!YEM: Refer to licensing agreement for further details.
!!!YEM: This file must be accompanied by the licensing agreement.
!!!YEM: A copy of the licensing agreement may be found at http://www.music-cog.ohio-state.edu/HumdrumDatabases/Palestrina/license.txt
!!!EMD: converted to Humdrum by Bret Aarden
